X:263
T:Kitchen Girl
C:Trad.
N:Transcribed by Mike Stangeland
R:bluegrass
L:1/8
Q:1/4=230
M:4/4
K:A
z8 |: "A"Ac ea "G"=g2 A2 | "A"e=g ed =c^c A2 | ed ef =ga be | (3"E7"=gfe d2 e4 | 
"A"Ac ea "G"=g2 A2 | "A"e=g ed =c^c A2 | =g2 d2 eg ed |1 =c"E7"^c A2 "A"A4 :|2 =c"E7"^c A2 "A"A2 AB | 
|: "Am"=cB Ac BA =GB | AB A=G E2 AB | =cB AB c2 d2 | "E7"d[ee] [ee][ee] [e2e2] AB | 
"Am"=cB Ac BA =GB | AB A=G EG AB | =cd ed "E7"cB A=G |1 A2 AA A2 AB :|2 A2 AA A4 | 


